X: 31763
T: Patrick Doherty's
R: barndance
M: 4/4
K: Dmajor
|:(3DEF|A<^GB>A F2 A2|f>ed>B A2- A>d|(3cdc B>A (3cdc B>A|(3FAF E>D F2- F>D|
A2 (3cBA F2 A>d|f>e (3dcB A2 A>d|(3cdc B>A ^G>AB>c|d2 f2 d2:|
|:A>d|f2 f2 f>ag>f|e2 B2 B2- B>d|(3cdc B>A (3cdc (3cBA|(3FAF E>D F2 (3FAd|
(3faf f>d (3fga (3agf|(3efe B>^A B2 (3fed|(3cdc B>A ^G2 (3ABc|(3ded f2 d2:|

